assets/fc/fc-parallel-tasks.svg

<svg xmlns="http://www.w3.org/2000/svg" width="100%" height="100%" viewBox="0 0 48 48"><path fill="#90CAF9" d="M36 13V9H22v13h-9v4h9v13h14v-4H26v-9h10v-4H26v-9z"/><path fill="#D81B60" d="M6 17h10v14H6z"/><path fill="#2196F3" d="M32 6h10v10H32zM32 32h10v10H32zM32 19h10v10H32z"/></svg>

<svg xmlns="http://www.w3.org/2000/svg" width="100%" height="100%" viewBox="0 0 48 48"><path fill="#90CAF9" d="M36 13L36 9 22 9 22 22 13 22 13 26 22 26 22 39 36 39 36 35 26 35 26 26 36 26 36 22 26 22 26 13z"/><path fill="#D81B60" d="M6 17H16V31H6z"/><path fill="#2196F3" d="M32 6H42V16H32zM32 32H42V42H32zM32 19H42V29H32z"/></svg>
